world_stage/static/flags/rect/gbr.svg

<svg height="800" viewBox="0 0 1202.6667 800" width="1202.6667" xmlns="http://www.w3.org/2000/svg"><path d="m0 0h902v600h-902z" fill="#00247d" transform="matrix(1.3333333 0 0 -1.3333333 0 800)"/><path d="m0 0-350.154-233.435 100.847-67.232 350.154 233.437v67.23zm-801.153 0v-67.231l350.153-233.435 100.846 67.231-350.152 233.435zm0-534.101v-65.899h102.846l348.154 232.103-100.847 67.231zm451 166.204 348.154-232.103h102.846v65.897l-350.154 233.436z" fill="#fff" transform="matrix(1.3333333 0 0 -1.3333333 1068.204 -.0004)"/><path d="m0 0v-200.444h-375.834v-200.445h375.834v-199.111h150.333v199.111h375.833v200.445h-375.833v200.444z" fill="#fff" transform="matrix(1.3333333 0 0 -1.3333333 501.1116 -.0004)"/><g fill="#cf142b"><path d="m0 0v-240.533h-405.9v-120.267h405.9v-239.2h90.2v239.2h405.9v120.267h-405.9v240.533z" transform="matrix(1.3333333 0 0 -1.3333333 541.2 -.0004)"/><path d="m0 0-300.667-200.444h67.23l300.667 200.444zm-834.77 0v-44.821l233.436-155.623h67.231zm601.333-400.889 298.668-199.111h1.999v43.488l-233.437 155.623zm-300.666 0-298.667-199.111h67.23l298.668 199.111z" transform="matrix(1.3333333 0 0 -1.3333333 1113.0264 -.0004)"/></g></svg>

<?xml version="1.0" encoding="UTF-8" standalone="no"?>
<!-- Created with Inkscape (http://www.inkscape.org/) -->

<svg
   version="1.1"
   id="svg1"
   width="1202.6667"
   height="800"
   viewBox="0 0 1202.6667 800"
   sodipodi:docname="gb.ai"
   xmlns:inkscape="http://www.inkscape.org/namespaces/inkscape"
   xmlns:sodipodi="http://sodipodi.sourceforge.net/DTD/sodipodi-0.dtd"
   xmlns="http://www.w3.org/2000/svg"
   xmlns:svg="http://www.w3.org/2000/svg">
  <defs
     id="defs1" />
  <sodipodi:namedview
     id="namedview1"
     pagecolor="#ffffff"
     bordercolor="#000000"
     borderopacity="0.25"
     inkscape:showpageshadow="2"
     inkscape:pageopacity="0.0"
     inkscape:pagecheckerboard="0"
     inkscape:deskcolor="#d1d1d1">
    <inkscape:page
       x="0"
       y="0"
       inkscape:label="1"
       id="page1"
       width="1202.6667"
       height="800"
       margin="0"
       bleed="0" />
  </sodipodi:namedview>
  <g
     id="layer-MC0"
     inkscape:groupmode="layer"
     inkscape:label="Layer 1">
    <path
       id="path1"
       d="M 0,0 H 902 V 600 H 0 Z"
       style="fill:#00247d;fill-opacity:1;fill-rule:nonzero;stroke:none"
       transform="matrix(1.3333333,0,0,-1.3333333,0,800)" />
    <path
       id="path2"
       d="m 0,0 -350.154,-233.435 100.847,-67.232 350.154,233.437 V 0 Z M -801.153,0 V -67.231 L -451,-300.666 -350.154,-233.435 -700.306,0 Z m 0,-534.101 V -600 h 102.846 l 348.154,232.103 -100.847,67.231 z m 451,166.204 L -1.999,-600 h 102.846 v 65.897 l -350.154,233.436 z"
       style="fill:#ffffff;fill-opacity:1;fill-rule:nonzero;stroke:none"
       transform="matrix(1.3333333,0,0,-1.3333333,1068.204,-4e-4)" />
    <path
       id="path3"
       d="M 0,0 V -200.444 H -375.834 V -400.889 H 0 V -600 h 150.333 v 199.111 h 375.833 v 200.445 H 150.333 l 0,200.444 z"
       style="fill:#ffffff;fill-opacity:1;fill-rule:nonzero;stroke:none"
       transform="matrix(1.3333333,0,0,-1.3333333,501.1116,-4e-4)" />
    <path
       id="path4"
       d="M 0,0 V -240.533 H -405.9 V -360.8 H 0 V -600 h 90.2 v 239.2 h 405.9 v 120.267 H 90.2 L 90.2,0 Z"
       style="fill:#cf142b;fill-opacity:1;fill-rule:nonzero;stroke:none"
       transform="matrix(1.3333333,0,0,-1.3333333,541.2,-4e-4)" />
    <path
       id="path5"
       d="m 0,0 -300.667,-200.444 h 67.23 L 67.23,0 Z m -834.77,0 v -44.821 l 233.436,-155.623 h 67.231 z M -233.437,-400.889 65.231,-600 h 1.999 v 43.488 l -233.437,155.623 z m -300.666,0 L -832.77,-600 h 67.23 l 298.668,199.111 z"
       style="fill:#cf142b;fill-opacity:1;fill-rule:nonzero;stroke:none"
       transform="matrix(1.3333333,0,0,-1.3333333,1113.0264,-4e-4)" />
  </g>
</svg>
